X:1
T:Religiöse Gesänge für Männerstimmen
T:Wie lieblich ist deine Wohnung
T:Bernhard Klein
T:Wie lieblich ist deine Wohnung
T:Op. 22, No. 4
T:CPDL   —   Creative Commons Attribution Non Commercial 3.0
T:CPDL   —   Creative Commons Attribution Non Commercial 3.0
T:CPDL   —   Creative Commons Attribution Non Commercial 3.0
T:CPDL   —   Creative Commons Attribution Non Commercial 3.0
T:CPDL   —   Creative Commons Attribution Non Commercial 3.0
T:CPDL   —   Creative Commons Attribution Non Commercial 3.0
T:CPDL   —   Creative Commons Attribution Non Commercial 3.0
T:CPDL   —   Creative Commons Attribution Non Commercial 3.0
C:Bernhard Klein
Z:CPDL   —   Creative Commons Attribution Non Commercial 3.0
%%score [ 1 2 ( 3 4 ) ]
L:1/8
Q:1/4=120
M:6/4
K:Bb
V:1 treble-8 nm="Tenor\n1"
V:2 treble-8 nm="Tenor\n2"
V:3 bass nm="Bass"
V:4 bass 
V:1
!p!"^Moderato quasi Andante" d2 | d6 B2 z2 B2 | e6 d2 z2 d2 | (d2 c2) B2 B2 A2 B2 | c6 z4 c2 | %5
w: Wie|lieb- lich, wie|lieb- lich ist|dei- * ne Woh- nung, o|Herr; wie|
 e6 d2 z2 c2 | f6- f2 e2 c2 |!<(! (d2 e2) =e2 f6!<)! | d6 z2!p! d2 d2 | d6-!<(! d2 e2 =e2!<)! | %10
w: lieb- lich, wie|lieb- * lich ist|dei- * ne Woh-|nung! Mei- ne|See- * le ver-|
 f6- f2 _e2 d2 | c6 z6 | (c6- c2 B2) c2 |!>(! d6-!>)! d2 e2 c2 | d6!<(! d4 d2 | d6-!<)! d2 z2 d2 | %16
w: lan- * get nach|dir,|mei- * * ne|See- * le ver-|lan- get nach|dir, _ ver-|
 g6 c4 d2 | (f4 e2) d4 e2 |"^A" c6 z4 c2 |!>(! d6!>)! B2 z2 B2 | e6 d2 z2 d2 | %21
w: lan- get, ver-|lan- * get nach|dir. Wie|lieb- lich, wie|lieb- lich ist|
 (d2 c2) c2 c2 B2 c2 | d4 z2!f! d4 d2 | g6 d6 | e6 z2!f! e2 e2 | d4 ^c2 d4 c2 | d4 z2!f! d4 d2 | %27
w: dei- * ne Woh- nung, o|Herr! Drückt mich|Schmach und|Not, sind die|Fein- de ü- ber|mir, drückt mich|
 B6 d6 | e6 z2 e2 e2 | g4 e2 B4 c2 |"^B" d6 z2!p! d2 d2 | d4 e2 (f2 e2) d2 | d4 d2 z6 | z12 | %34
w: Schmach und|Not, sind die|Fein- de ü- ber|mir, hält mich|Schmerz und Leid _ ge-|fan- gen,||
 z2 c2 c2!f! f6- | f4 f2 =e4 e2 | _e6 e2 z2 z2 |!p! d6 (d2 e2) f2 | f6- f4 d2 | %39
w: hält mich Schmerz|_ und Leid ge-|fan- gen:|ich seh _ em-|por _ nach|
 (B6-!<(! B2 c2) d2!<)! | (f4 e2) d4 z2 | c6 c4 e2 | g6- g4 e2 | (f6- f2 e2) d2 |"^C" c6 d2 z2 z2 | %45
w: Zi- * * ons|Ber- * gen,|ich seh em-|por _ nach|Zi- * * ons|Ber- gen,|
 z6 z4!f! B2 | (c2 f2) e2 (d2 c2) B2 | F6 B2 z2 B2 | (c2 f2) e2 d4 d2 | g6 c2 z2!f! c2 | %50
w: von|dort _ her kommt _ mir|Hil- fe, von|dort _ her kommt mir|Hil- fe, von|
 f4 d2 e4 d2 | c6 c2 z2"^dolce" c2 | d6 B2 z2 B2 | e6 d2 z2 d2 | (d2 c2) B2 B2 A2 B2 | c6 z4 c2 | %56
w: dort her kommt mir|Hil- fe. Wie|lieb- lich, wie|lieb- lich ist|dei- * ne Woh- nung, o|Herr! Wie|
 e6 d2 z2!<(! c2 | f6- f2 e2 d2!<)! | c4 ^c2 (d4 =c2) | B4 z2 z6 | z12 | z2!p! B2 B2 (f6- | %62
w: lieb- lich, wie|lieb- * lich ist|dei- ne Woh- *|nung!||Mei- ne See-|
!<(! f6 f2)!<)! e2 d2 | d2 c2 d2 e4 B2 |!f! g6- g4 z2 | f6- f4 f2 | f6- f2 e2 d2 | c6- c2 c2 c2 | %68
w: * * le ver-|lan- get nach dir, nach|dir, _|mei- * ne|See- * le ver-|lan- * get nach|
 B6- B2 z2 B2 |!pp! d6 d6 | !fermata!B6 |] %71
w: dir, _ nach|dir, o|Herr!|
V:2
!p! B2 | B6 B2 z2 B2 | B6 B2 z2 B2 | (B2 A2) B2 F2 F2 B2 | A6 z4 A2 | c6 B2 z2 A2 | B6 B4 B2 | %7
w: Wie|lieb- lich, wie|lieb- lich ist|dei- * ne Woh- nung, o|Herr; wie|lieb- lich, wie|lieb- lich ist|
!<(! (B2 c2) _d2 c6!<)! | B6 z4 z2 |!p! A6 B6 | A2 B2 c2 d2 B2 B2 | B6 z6 | (A6- A2 B2) A2 | %13
w: dei- * ne Woh-|nung!|Mei- ne|See- le ver- lan- get nach|dir,|mei- * * ne|
!>(! _A6-!>)! A2 G2 =A2 | B6!<(! B4 B2 | A6-!<)! A2 z2 A2 | G6 A4 B2 | c6 B4 c2 | A6 z4 A2 | %19
w: ||||||
!>(! A6!>)! G2 z2 G2 | c6 A2 z2 A2 | G4 c2 A2 G2 A2 | B4 z2!f! d4 c2 | B6 d6 | c6 z2!f! c2 c2 | %25
w: lieb- lich, wie|lieb- lich ist|dei- ne Woh- nung, o|Herr! Drückt mich|Schmach und|Not, sind die|
 A4 A2 A4 A2 | A4 z2!f! A4 A2 | B6 B6 | B6 z2 B2 B2 | B4 B2 B4 G2 | A6 z2!p! A2 A2 | %31
w: Fein- de ü- ber|mir, drückt mich|Schmach und|Not, sind die|Fein- de ü- ber|mir, hält mich|
 =B4 c2 (d2 c2) B2 | =B4 B2 z2!p! B2 B2 | c4 c2 (_d2 c2) =B2 | c4 c2!f! (c6- | c2 B2) =B2 c4 c2 | %36
w: Schmerz und Leid _ ge-|fan- gen, hält mich|Schmerz und Leid _ ge-|fan- gen, hält|_ _ mich Leid ge-|
 c6 c2 z2 z2 |!p! B6 (B2 c2) d2 | d6- d4 B2 | (B6-!<(! B2 A2) B2!<)! | c6 B4 z2 | c6 c4 c2 | %42
w: fan- gen:|ich seh _ em-|por _ nach|Zi- * * ons|Ber- gen,|ich seh em-|
 d6- d4 c2 | c6- c4 B2 | A6 B2 z2!f! B2 | (c2 B2) A2 (B2 c2) d2 | F6 B2 z2 B2 | %47
w: por _ nach|Zi- * ons|Ber- gen, von|dort _ her kommt _ mir|Hil- fe, von|
 (c2 B2) A2 (B2 c2) d2 | F4 F2 (F2 B2) _A2 | G6 G2 z2!f! c2 | c4 d2 c4 B2 | B6 A2 z2"^dolce" A2 | %52
w: dort _ her kommt _ mir|Hil- fe, kommt _ mir|Hil- fe, von|dort her kommt mir|Hil- fe. Wie|
 B6 B2 z2 B2 | B6 B2 z2 B2 | (B2 A2) B2 F2 F2 B2 | A6 z4 A2 | c6 B2 z2!<(! A2 | B6 B4 B2!<)! | %58
w: lieb- lich, wie|lieb- lich ist|dei- * ne Woh- nung, o|Herr! Wie|lieb- lich, wie|lieb- lich ist|
 B4 B2 (B4 A2) | B4 z2 z2!p! B2 B2 | B6- B2 c2 ^c2 | (d2 e2 d2 c2) B2 A2 | (B12- | %63
w: dei- ne Woh- *|nung! Mei- ne|See- * le ver-|lan- * * * get, ver-|lan-|
 B2 c2 B2) B4 B2 |!f! B4 B2 e6- | e6 e4 e2 | (d4 c2) B4 B2 | A6- A2 A2 A2 | B6- B2 z2 B2 | %69
w: * * * get nach|dir, nach dir,|_ mei- ne|See- * le ver-|lan- * get nach|dir, _ nach|
!pp! B6 F6 | !fermata!F6 |] %71
w: dir, o|Herr!|
V:3
!p! F,2 | F,6 D,2 z2 D,2 | G,6 F,2 z2 F,2 | F,4 F,2 F,2 E,2 D,2 | F,6 z4 F,2 | F,6 F,2 z2 F,2 | %6
w: ||||||
 (F,2 B,2 _A,2) G,4 G,2 |!<(! F,4 B,2 A,6!<)! | B,6 z4 z2 |!p! ^F,6 G,6 | F,2 G,2 A,2 B,2 G,2 F,2 | %11
w: |||||
 E,6!p! z4 E,2 | F,6 F,4 F,2 |!>(! F,6-!>)! F,2 E,2 F,2 | F,4 z2 z4 F,2 | ^F,6 F,4 F,2 | %16
w: * ver-|lan- get, ver-|lan- * get nach|dir, ver-|lan- get nach|
 G,4 G,2 _G,4 F,2 | F,6 F,4 G,2 | F,6 z4 F,2 |!>(! ^F,6!>)! G,2 z2 G,2 | G,6 ^F,2 z2 F,2 | %21
w: dir, nach dir, ver-|lan- get nach|dir. Wie|||
 G,4 G,2 =F,6 | F,4 z2!f! ^F,4 F,2 | G,6 G,6 | G,6 z2!f! G,2 G,2 | ^F,4 G,2 F,4 G,2 | %26
w: * * Woh-|nung. * *||||
 ^F,4 z2!f! F,4 F,2 | G,6 _A,6 | G,6 z2 G,2 G,2 | G,4 G,2 G,4 G,2 | ^F,6 z2!p! F,2 F,2 | %31
w: |||||
 G,4 G,2 G,4 G,2 | !>!_A,4 A,2 z2!p! G,2 G,2 | G,4 G,2 _A,4 A,2 | G,4 G,2!f! =A,4 A,2 | F,6 G,6 | %36
w: |||* * hält mich|Schmerz ge-|
 !>!_G,6 F,2 z2 z2 |!p! F,6 F,4 F,2 | F,6- F,4 F,2 | F,6-!<(! F,4 F,2!<)! | F,6 F,4 z2 | %41
w: fan- gen:|||||
 G,6 G,4 G,2 | G,6- G,4 G,2 | F,6- F,4 F,2 | F,6 F,2 z2!f! F,2 | F,6 F,6 | (F,6 F,2 E,2) D,2 | %47
w: ||||dort her|kommt _ _ mir|
 F,6 F,4 F,2 | F,4 F,2 F,4 F,2 | (D,2 G,2 F,2) E,2 z2!f! E,2 | F,4 B,2 G,4 F,2 | %51
w: Hil- fe, von|dort her kommt mir|Hil- * * fe, *||
 G,6 F,2 z2"^dolce" F,2 | F,6 D,2 z2 D,2 | G,6 F,2 z2 F,2 | F,4 F,2 F,2 E,2 D,2 | F,6 z4 F,2 | %56
w: |||||
 F,6 F,2 z2!<(! F,2 | (D,2 B,2 _A,2) G,4 F,2!<)! | G,4 G,2 (F,4 _E,2) | D,4 z2 z6 | %60
w: ||||
!p! (D,6- D,2 E,2) =E,2 | F,2 G,2 F,2 (E,2 D,2 E,2 | D,2) B,2 _A,2!<(! (G,4 F,2-)!<)! | %63
w: Mei- * * ne|See- le ver- lan- * *|* get, ver- lan- *|
 F,2 F,2 F,2 E,4 B,2 |!f! G,6- G,4 z2 | A,6- A,4 A,2 | (B,4 A,2) G,4 F,2 | (E,2 F,2 _G,4) F,2 E,2 | %68
w: * get nach dir, nach|dir, _|mei- * ne|||
 D,6- D,2 z2 D,2 |!pp! F,6 F,6 | !fermata!D,6 |] %71
w: * * nach|dir, o|Herr!|
V:4
 B,,2 | B,,6 B,,2 x2 B,,2 | B,,6 B,,2 x2 B,,2 | (B,,2 C,2) D,2 D,2 C,2 B,,2 | F,6 x4 F,2 | %5
w: |||||
 A,,6 B,,2 x2 E,2 | D,6 E,4 =E,2 | F,4 F,2 F,6 | B,,6 x4 x2 | z12 | z12 | z6 E,4 E,2 | %12
w: ||||||Mei- ne|
 E,6- E,2 D,2 C,2 | =B,,6- B,,2 C,2 F,2 | B,,4 x2 x4 B,,2 | D,6 D,4 D,2 | E,6- E,4 D,2 | %17
w: See- * le ver-|lan- * get *|||dir, _ _|
 A,,6 B,,4 E,2 | F,6 x4 F,2 | ^F,6 G,2 x2 G,2 | C,6 D,2 x2 D,2 | E,4 =E,2 F,6 | B,,4 x2 D,4 D,2 | %23
w: _ _ _||||||
 G,,6 B,,6 | C,6 x2 C,2 C,2 | D,4 E,2 D,4 E,2 | D,4 x2 D,4 D,2 | G,6 =F,6 | E,6 x2 E,2 E,2 | %29
w: ||||||
 E,4 E,2 E,4 E,2 | D,6 x2 z4 | z12 | z6 x2 G,2 F,2 | =E,4 E,2 F,4 F,2 | =E,4 E,2 _E,4 E,2 | %35
w: ||||||
 _D,6 C,6 | A,,6 A,,2 x2 x2 | B,,6 B,,4 B,,2 | B,,6- B,,4 B,,2 | (D,6- D,2 C,2) B,,2 | %40
w: |||||
 A,,6 B,,4 x2 | E,6 E,4 C,2 | =B,,6- B,,4 C,2 | A,,6- A,,4 _B,,2 | F,6 B,,2 x2 D,2 | %45
w: ||||* * von|
 (E,2 D,2) C,2 (D,2 C,2) B,,2 | A,,6 B,,2 z2 B,,2 | (E,2 D,2) C,2 (D,2 C,2) B,,2 | A,,6 B,,4 B,,2 | %49
w: dort _ her kommt _ mir|Hil- fe, von|dort _ her kommt _ mir|Hil- fe, von|
 =B,,6 C,2 x2 C,2 | A,,4 B,,2 C,4 D,2 | E,6 F,2 x2 F,2 | B,,6 B,,2 x2 B,,2 | B,,6 B,,2 x2 B,,2 | %54
w: dort her *|||||
 (B,,2 C,2) D,2 D,2 C,2 B,,2 | F,6 x4 F,2 | A,,6 B,,2 x2 E,2 | D,6 E,4 B,,2 | E,4 =E,2 F,6 | %59
w: |||||
 B,,4 x2 x6 | B,,6- B,,4 B,,2 | B,,6- B,,2 B,,2 B,,2 | D,6 E,4 B,,2 | B,,2 A,,2 _A,,2 G,,4 B,,2 | %64
w: |Mei- * ne|See- * le ver-|lan- get, ver-|lan- get nach dir, *|
 E,6- E,4 x2 | F,6 F,6 | B,,6 B,,4 B,,2 | B,,6- B,,2 B,,2 B,,2 | B,,6- B,,2 x2 B,,2 | B,,6 B,,6 | %70
w: |mei- ne|See- le ver-|lan- * get nach|dir, _ _|_ _|
 B,,6 |] %71
w: |

